!!!OTL: Pourquoi faut-il qu'une personne chante? ((122), S. 281
!!!id: T0287
**kern
*clefG2
*k[]
*C:
{8g
8g
8cc
=1
4.cc
8e
8e
8d
8a
8g
=2
4g
4f}
8r
=3
{8f
8e
8d
=4
4.dd
8cc
8b
8a
8g
8f
=5
2e}
8r
=6
{8cc
8cc
8cc
=7
4cc
4g
8cc
8cc
8cc
8ee
=8
4ee
4dd}
8r
=9
{8cc
8cc
8a
=10
4.g
8g
8g
8g
8a
8f
=11
2e}
8r
=12
{16dd
16ee
16cc
16b
8a
=13
4.g
8g
8cc
8dd
8ff
8b
=14
2cc}
8r
==
*-
!!!minrhy: 16
!!!meters: 4/4 ]  ZZ[5
!!!cut: Pourquoi faut-il qu'une personne chante? ((122), S. 281
!!!reg: Luxemburg
!!!trd: Singendes Volk, Esch-Alzette 1937 posth.
!!!rhy1: X_X_X_  X__.X_X_X_X_X_  X__X__0   (x2)
!!!rhy2: X_X_X_  X__.X_X_X_X_X_  X___0
!!!key: T0287  16  C 4/4 ]  ZZ[5
!!!mod: HEPTATONIK IONISCH]  AMBITUS[10b
!!!kad: 43+23+1
!!!akz: +135_+273_+1+1+3_553_5+1+1_
!!!fot: 'a__b__c__d__e__
!!!for: 'a__aw_b__aw_aw_
!!!fok: '^d_^d_/__\__Sd_
!! PHRAS[AUFTAKTIG]
!!!fkt: Liebeslieder
!!!bem: Medernach, fff Anna Petry, 7.2.1916
!! THILL, Mathias:
!! PR[40] 2K[0] 2G[8] 3K[4] 3G[2] 4A[2] 4Ü[0] 5A[0] 6K[0] 6G[6]
!! 7K[0] 7G[0] 8A[0] MEHR[0] SI[21] ABS[52] SR[8] SP[13]
!! ST[12] 2k[8] 2g[25] 3k[0] 3g[2] 4d[2] 4ü[0] 5d[2] 6k[0] 6g[0]
!! 7k[0] 7g[0] 8d[0] mehr[0] si[38] dm[-17] sr[33] sp[6]
!! 1F[36] 2F[56] 3F[4] 4F[0] LF[0] 2P[4] 3P[0] 4P[0] TRI[0] DF[4] AB[55]
!! TF[0] U3K[0] U3[0] U4[0] U4Ü[0] U5[2] U6K[0] U6[0] U7K[0] U7[0]
!! N1[21] N2K[0] N2[2] N3K[0] N3[19] N4[15] N4Ü[0] N5[17] N6K[0] N6[25]
!!!n7k: 0] N7[0] O1[0] O2K[0] O2[0] O3K[0] O3[0] HÖ[0
